icons/folder-content.svg

<svg xmlns="http://www.w3.org/2000/svg" viewBox="0 0 16 16"><path id="folder" fill="#00bcd4" d="m6.922 3.768-.644-.536A1 1 0 0 0 5.638 3H2a1 1 0 0 0-1 1v8a1 1 0 0 0 1 1h12a1 1 0 0 0 1-1V5a1 1 0 0 0-1-1H7.562a1 1 0 0 1-.64-.232"/><path id="motive" fill="#b2ebf2" d="M5.5 7a.5.5 0 0 0-.5.5v6a.5.5 0 0 0 .5.5h10a.5.5 0 0 0 .5-.5v-6a.5.5 0 0 0-.5-.5zM10 8h5v5h-5zm1 1v1h3V9zm0 2v1h3v-1z"/></svg>

<svg xmlns="http://www.w3.org/2000/svg" viewBox="0 0 16 16">
<path id="folder" fill="#00bcd4" d="m6.922 3.768-.644-.536A1 1 0 0 0 5.638 3H2a1 1 0 0 0-1 1v8a1 1 0 0 0 1 1h12a1 1 0 0 0 1-1V5a1 1 0 0 0-1-1H7.562a1 1 0 0 1-.64-.232" />
<path id="motive" fill="#b2ebf2" d="M 5.5 7 A 0.5 0.5 0 0 0 5 7.5 L 5 13.5 A 0.5 0.5 0 0 0 5.5 14 L 15.5 14 A 0.5 0.5 0 0 0 16 13.5 L 16 7.5 A 0.5 0.5 0 0 0 15.5 7 L 5.5 7 z M 10 8 L 15 8 L 15 13 L 10 13 L 10 8 z M 11 9 L 11 10 L 14 10 L 14 9 L 11 9 z M 11 11 L 11 12 L 14 12 L 14 11 L 11 11 z " />
</svg>
